X:16681
T:The Falcon on The Hedge
R:Jig
S:
H:
N:
D:Cherish The Ladies
Z:Adrian Scahill
M:6/8
L:1/8
K:D
FAE DFA|B2A A2d|BAA dAA|(3Bcd B BAG|\
F2E DFA|B2A A2A|1 Bcd ecAA|ded dAG:|2 Bcd e2d|~e3 ~e2d||\
efg B2A|efg a2g|efg B2A|ded dBA|\
efg B2A|efg a3|age edB|1 ~e3 ~e2d:|2 ~A3 ~A2G||\
aeg edB|\
W: Second Part, Fourth Bar; Variation
